; generated by PrusaSlicer 2.9.1 on 2025-04-08 at 09:57:13 UTC


;
;
; 

; external perimeters extrusion width = 0.45mm
; perimeters extrusion width = 0.45mm
; infill extrusion width = 0.45mm
; solid infill extrusion width = 0.45mm
; top infill extrusion width = 0.40mm
; support material extrusion width = 0.35mm
; first layer extrusion width = 0.42mm

M73 P0 R29
M73 Q0 S29
M201 X1000 Y1000 Z200 E5000 ; sets maximum accelerations, mm/sec^2
M203 X200 Y200 Z12 E120 ; sets maximum feedrates, mm / sec
M204 S1250 T1250 ; sets acceleration (S) and retract acceleration (R), mm/sec^2
M205 X8.00 Y8.00 Z0.40 E4.50 ; sets the jerk limits, mm/sec
M205 S0 T0 ; sets the minimum extruding and travel feed rate, mm/sec

; printing object Ambient_board_Meteostanice.stl id:0 copy 0
; stop printing object Ambient_board_Meteostanice.stl id:0 copy 0

;TYPE:Custom
M862.3 P "MK3S" ; printer model check
M862.1 P0.4 ; nozzle diameter check
M115 U3.14.1 ; tell printer latest fw version
G90 ; use absolute coordinates
M83 ; extruder relative mode
M104 S215 ; set extruder temp
M140 S60 ; set bed temp
M190 S60 ; wait for bed temp
M109 S215 ; wait for extruder temp
G28 W ; home all without mesh bed level
G80 X103.341 Y83.3413 W43.3174 H43.3174 ; mesh bed levelling

G1 Z0.2 F720
G1 Y-3 F1000 ; go outside print area
G92 E0
G1 X60 E9 F1000 ; intro line
G1 X100 E12.5 F1000 ; intro line

G92 E0
M221 S95

; Don't change E values below. Excessive value can damage the printer.
M907 E430 ; set extruder motor current
G21 ; set units to millimeters
G90 ; use absolute coordinates
M83 ; use relative distances for extrusion

M900 K0.05 ; Filament gcode LA 1.5
M900 K30 ; Filament gcode LA 1.0




M107
;LAYER_CHANGE
;Z:0.2
;HEIGHT:0.2
G1 E-.8 F2100
G1 Z.6 F720
G1 X104.171 Y91.203 F10800
G1 Z.2 F720
G1 E.8 F2100
M204 S800
;TYPE:Skirt/Brim
;WIDTH:0.42
G1 F1200
G1 X108.895 Y86.478 E.20949
G1 X109.751 Y85.949 E.03155
G1 X116.672 Y83.642 E.22874
G1 X117.364 Y83.53 E.02198
G1 X132.636 Y83.53 E.47884
G1 X133.328 Y83.642 E.02198
G1 X140.249 Y85.949 E.22874
G1 X141.105 Y86.478 E.03155
G1 X145.829 Y91.203 E.20949
G1 X146.47 Y92.75 E.0525
G1 X146.47 Y117.25 E.76818
G1 X145.829 Y118.797 E.0525
G1 X138.797 Y125.829 E.31181
G1 X137.25 Y126.47 E.0525
G1 X112.75 Y126.47 E.76818
G1 X111.203 Y125.829 E.0525
G1 X104.171 Y118.797 E.31181
G1 X103.53 Y117.25 E.0525
G1 X103.53 Y92.75 E.76818
G1 X104.148 Y91.258 E.05063
M204 S1000
;WIPE_START
G1 F8640
G1 X104.171 Y91.203 E-.01377
G1 X106.579 Y88.795 E-.78623
;WIPE_END
G1 Z.6 F720
G1 X117.226 Y105.49 F10800
G1 Z.2 F720
G1 E.8 F2100
M204 S800
G1 F1200
G1 X118.423 Y104.861 E.0424
G1 X119.796 Y104.563 E.04405
G1 X130.284 Y104.566 E.32884
G1 X131.859 Y104.967 E.05096
G1 X133.219 Y105.851 E.05086
G1 X134.219 Y107.168 E.05185
G1 X134.712 Y108.726 E.05124
G1 X134.764 Y112.208 E.10919
G1 X134.693 Y114.646 E.07647
G1 X134.101 Y116.317 E.05558
G1 X133.459 Y117.16 E.03322
G1 X132.72 Y117.807 E.0308
G1 X131.555 Y118.403 E.04103
G1 X130.211 Y118.687 E.04307
G1 X126.462 Y118.682 E.11755
G1 X124.993 Y118.319 E.04744
G1 X124.685 Y118.449 E.01048
G1 X123.532 Y118.679 E.03686
G1 X119.735 Y118.68 E.11905
G1 X118.592 Y118.458 E.03651
G1 X117.549 Y117.987 E.03588
M73 Q1 S29
G1 X116.284 Y116.858 E.05316
G1 X115.574 Y115.628 E.04453
G1 X115.252 Y114.253 E.04428
G1 X115.24 Y109.08 E.1622
M73 P1 R29
G1 X115.502 Y107.816 E.04047
G1 X116.075 Y106.668 E.04023
G1 X117.184 Y105.532 E.04978
M204 S1000
G1 X117.452 Y105.797 F10800
M204 S800
G1 F1200
G1 X117.472 Y105.776 E.00091
G1 X118.573 Y105.207 E.03886
G1 X119.816 Y104.94 E.03986
G1 X130.26 Y104.943 E.32746
G1 X131.734 Y105.324 E.04774
G1 X132.983 Y106.147 E.0469
G1 X133.897 Y107.367 E.0478
G1 X134.344 Y108.811 E.0474
G1 X134.387 Y112.212 E.10664
G1 X134.317 Y114.604 E.07503
G1 X133.757 Y116.161 E.05188
G1 X133.196 Y116.89 E.02884
G1 X132.527 Y117.483 E.02803
G1 X131.406 Y118.055 E.03946
G1 X130.154 Y118.313 E.04008
G1 X126.483 Y118.305 E.1151
G1 X125.329 Y118.056 E.03702
G1 X124.995 Y117.903 E.01152
G1 X124.588 Y118.084 E.01397
G1 X123.513 Y118.302 E.03439
G1 X119.753 Y118.303 E.11789
G1 X118.727 Y118.105 E.03276
G1 X117.731 Y117.656 E.03426
G1 X116.56 Y116.599 E.04946
G1 X115.916 Y115.467 E.04083
G1 X115.625 Y114.192 E.041
G1 X115.617 Y109.099 E.15969
G1 X115.85 Y107.962 E.03639
G1 X116.399 Y106.864 E.03849
G1 X117.41 Y105.84 E.04512
M204 S1000
G1 X117.676 Y106.106 F10800
M204 S800
G1 F1200
G1 X117.717 Y106.065 E.00182
G1 X118.721 Y105.555 E.03531
G1 X119.835 Y105.317 E.03572
G1 X130.237 Y105.32 E.32615
G1 X131.553 Y105.656 E.04259
G1 X132.747 Y106.443 E.04484
G1 X133.574 Y107.564 E.04368
G1 X133.975 Y108.893 E.04353
G1 X133.952 Y114.507 E.17602
G1 X133.439 Y115.956 E.0482
G1 X132.932 Y116.62 E.02619
G1 X132.295 Y117.184 E.02668
G1 X131.259 Y117.707 E.03639
G1 X130.136 Y117.936 E.03594
G1 X126.504 Y117.928 E.11388
G1 X125.433 Y117.692 E.03439
G1 X124.998 Y117.485 E.0151
G1 X124.489 Y117.72 E.01758
G1 X123.494 Y117.925 E.03185
G1 X119.771 Y117.926 E.11673
G1 X118.822 Y117.74 E.03032
G1 X117.915 Y117.325 E.03127
G1 X116.837 Y116.342 E.04574
G1 X116.258 Y115.308 E.03716
G1 X115.998 Y114.132 E.03776
G1 X115.994 Y109.12 E.15715
G1 X116.214 Y108.064 E.03382
G1 X116.721 Y107.062 E.03521
G1 X117.634 Y106.148 E.04051
M204 S1000
G1 X117.898 Y106.416 F10800
M204 S800
G1 F1200
G1 X117.96 Y106.354 E.00275
G1 X118.824 Y105.918 E.03034
G1 X119.856 Y105.694 E.03311
G1 X130.212 Y105.697 E.32471
G1 X131.426 Y106.012 E.03932
G1 X132.509 Y106.737 E.04086
G1 X133.249 Y107.757 E.03951
G1 X133.606 Y108.974 E.03977
G1 X133.586 Y114.412 E.17051
G1 X133.12 Y115.752 E.04448
G1 X132.644 Y116.376 E.02461
G1 X132.065 Y116.885 E.02417
G1 X131.158 Y117.343 E.03186
G1 X130.117 Y117.559 E.03334
G1 X126.526 Y117.551 E.11259
G1 X125.539 Y117.33 E.03171
G1 X125.002 Y117.066 E.01876
G1 X124.389 Y117.356 E.02126
G1 X123.474 Y117.548 E.02931
G1 X119.79 Y117.549 E.11551
G1 X118.919 Y117.375 E.02785
G1 X118.101 Y116.996 E.02827
G1 X117.116 Y116.086 E.04205
G1 X116.603 Y115.152 E.03341
G1 X116.371 Y114.073 E.0346
G1 X116.371 Y109.14 E.15467
G1 X116.577 Y108.168 E.03115
G1 X117.043 Y107.261 E.03197
G1 X117.855 Y106.458 E.03581
M204 S1000
G1 X118.118 Y106.727 F10800
M204 S800
G1 F1200
G1 X118.201 Y106.646 E.00364
G1 X118.969 Y106.267 E.02685
G1 X119.876 Y106.071 E.02909
G1 X130.187 Y106.074 E.32329
G1 X131.298 Y106.368 E.03603
G1 X132.267 Y107.029 E.03678
G1 X132.922 Y107.948 E.03538
G1 X133.236 Y109.051 E.03596
G1 X133.219 Y114.32 E.16521
G1 X132.801 Y115.549 E.0407
G1 X132.38 Y116.106 E.02189
G1 X131.834 Y116.585 E.02277
G1 X131.013 Y116.995 E.02877
G1 X130.099 Y117.182 E.02925
G1 X126.549 Y117.174 E.11131
G1 X125.646 Y116.968 E.02904
G1 X125.006 Y116.644 E.02249
G1 X124.287 Y116.992 E.02505
G1 X123.453 Y117.17 E.02674
G1 X119.809 Y117.172 E.11426
G1 X119.017 Y117.01 E.02535
G1 X118.289 Y116.668 E.02522
G1 X117.396 Y115.832 E.03835
G1 X116.966 Y115.046 E.02809
M73 P1 R28
G1 X116.744 Y114.014 E.0331
G1 X116.748 Y109.161 E.15216
G1 X116.94 Y108.273 E.02849
G1 X117.362 Y107.463 E.02864
G1 X118.075 Y106.769 E.0312
M204 S1000
G1 X118.335 Y107.04 F10800
M204 S800
G1 F1200
G1 X118.44 Y106.939 E.00457
G1 X119.072 Y106.63 E.02206
G1 X119.896 Y106.449 E.02645
G1 X130.163 Y106.451 E.32191
G1 X131.116 Y106.7 E.03088
G1 X131.981 Y107.276 E.03258
G1 X132.595 Y108.139 E.03321
G1 X132.866 Y109.126 E.03209
G1 X132.852 Y114.229 E.16
G1 X132.48 Y115.349 E.037
G1 X132.116 Y115.836 E.01906
G1 X131.605 Y116.285 E.02133
G1 X130.869 Y116.645 E.02569
G1 X130.081 Y116.805 E.02521
G1 X126.571 Y116.797 E.11005
G1 X125.756 Y116.606 E.02625
G1 X124.993 Y116.164 E.02765
G1 X124.182 Y116.629 E.02931
G1 X123.432 Y116.793 E.02407
G1 X119.829 Y116.795 E.11297
G1 X119.117 Y116.646 E.02281
G1 X118.478 Y116.341 E.0222
G1 X117.71 Y115.622 E.03299
G1 X117.328 Y114.937 E.02459
G1 X117.121 Y113.995 E.03024
G1 X117.125 Y109.182 E.15091
G1 X117.303 Y108.381 E.02573
G1 X117.681 Y107.667 E.02533
G1 X118.291 Y107.081 E.02652
M204 S1000
G1 X118.549 Y107.354 F10800
M204 S800
G1 F1200
G1 X118.676 Y107.234 E.00548
G1 X119.176 Y106.993 E.0174
G1 X119.918 Y106.826 E.02385
G1 X130.138 Y106.828 E.32044
G1 X130.986 Y107.055 E.02752
G1 X131.739 Y107.567 E.02855
G1 X132.266 Y108.326 E.02897
G1 X132.495 Y109.197 E.02824
G1 X132.484 Y114.142 E.15505
G1 X132.158 Y115.151 E.03325
G1 X131.852 Y115.566 E.01617
G1 X131.375 Y115.985 E.01991
G1 X130.769 Y116.281 E.02115
G1 X130.062 Y116.428 E.02264
G1 X126.593 Y116.42 E.10877
G1 X125.909 Y116.261 E.02202
G1 X125.369 Y115.982 E.01906
G1 X125.009 Y115.642 E.01553
G1 X124.586 Y116.01 E.01758
G1 X124.037 Y116.28 E.01918
G1 X123.374 Y116.42 E.02125
G1 X119.848 Y116.418 E.11056
G1 X119.259 Y116.296 E.01886
G1 X118.667 Y116.013 E.02057
G1 X118.023 Y115.41 E.02766
G1 X117.689 Y114.826 E.02109
G1 X117.498 Y113.975 E.02735
G1 X117.502 Y109.203 E.14962
G1 X117.648 Y108.534 E.02147
G1 X117.999 Y107.872 E.02349
G1 X118.505 Y107.395 E.0218
M204 S1000
G1 X118.759 Y107.67 F10800
M204 S800
G1 F1200
G1 X118.909 Y107.531 E.00641
G1 X119.281 Y107.356 E.01289
G1 X119.94 Y107.203 E.02121
G1 X130.112 Y107.205 E.31894
G1 X130.854 Y107.41 E.02414
G1 X131.493 Y107.855 E.02442
G1 X131.934 Y108.507 E.02468
G1 X132.124 Y109.265 E.0245
G1 X132.124 Y111.741 E.07763
G1 X132.065 Y112.022 E.009
G1 X132.124 Y112.294 E.00873
G1 X132.116 Y114.057 E.05528
G1 X131.834 Y114.956 E.02954
G1 X131.586 Y115.297 E.01322
G1 X131.147 Y115.684 E.01835
G1 X130.629 Y115.93 E.01798
G1 X130.044 Y116.051 E.01873
G1 X126.615 Y116.043 E.10751
G1 X126.061 Y115.915 E.01783
G1 X125.57 Y115.661 E.01733
G1 X125.023 Y115.119 E.02414
G1 X124.394 Y115.683 E.02649
G1 X123.893 Y115.931 E.01753
G1 X123.319 Y116.047 E.01836
G1 X119.87 Y116.041 E.10814
M73 Q1 S28
G1 X119.362 Y115.932 E.01629
M73 Q2 S28
G1 X118.858 Y115.687 E.01757
G1 X118.333 Y115.195 E.02256
M73 P2 R28
G1 X118.049 Y114.711 E.0176
G1 X117.875 Y113.955 E.02432
G1 X117.931 Y112.006 E.06113
G1 X117.879 Y109.224 E.08724
G1 X118.01 Y108.644 E.01864
G1 X118.315 Y108.081 E.02008
G1 X118.715 Y107.711 E.01708
M204 S1000
G1 X118.965 Y107.988 F10800
M204 S800
G1 F1200
G1 X119.139 Y107.832 E.00733
G1 X119.963 Y107.58 E.02702
G1 X130.085 Y107.583 E.31737
G1 X130.717 Y107.763 E.0206
G1 X131.245 Y108.141 E.02036
G1 X131.577 Y108.633 E.01861
G1 X131.747 Y109.29 E.02128
G1 X131.747 Y111.718 E.07613
G1 X131.677 Y112.024 E.00984
G1 X131.747 Y112.319 E.00951
G1 X131.747 Y113.976 E.05195
G1 X131.508 Y114.765 E.02585
G1 X130.919 Y115.382 E.02675
G1 X130.492 Y115.579 E.01474
G1 X130.025 Y115.674 E.01494
G1 X126.639 Y115.666 E.10617
G1 X126.173 Y115.554 E.01503
G1 X125.774 Y115.343 E.01415
G1 X125.319 Y114.879 E.02038
G1 X125.012 Y114.279 E.02113
G1 X124.576 Y115.02 E.02696
G1 X124.2 Y115.359 E.01587
G1 X123.792 Y115.566 E.01434
G1 X123.263 Y115.674 E.01693
G1 X119.892 Y115.664 E.1057
G1 X119.468 Y115.569 E.01362
G1 X119.052 Y115.362 E.01457
G1 X118.641 Y114.976 E.01768
G1 X118.409 Y114.594 E.01401
G1 X118.253 Y113.934 E.02126
G1 X118.319 Y112.009 E.06039
G1 X118.253 Y111.715 E.00945
G1 X118.256 Y109.247 E.07738
G1 X118.37 Y108.757 E.01577
G1 X118.628 Y108.292 E.01667
G1 X118.92 Y108.029 E.01232
M204 S1000
G1 X119.166 Y108.303 F10800
M204 S800
G1 F1200
G1 X119.325 Y108.16 E.0067
G1 X119.987 Y107.957 E.02171
G1 X130.056 Y107.96 E.31571
G1 X130.576 Y108.114 E.017
G1 X130.991 Y108.422 E.0162
G1 X131.243 Y108.81 E.01451
G1 X131.37 Y109.312 E.01624
G1 X131.37 Y111.693 E.07465
G1 X131.286 Y112.027 E.0108
G1 X131.37 Y112.345 E.01031
G1 X131.37 Y113.948 E.05026
G1 X131.18 Y114.577 E.0206
G1 X130.693 Y115.078 E.02191
G1 X130.007 Y115.297 E.02258
G1 X126.701 Y115.294 E.10366
G1 X126.327 Y115.209 E.01203
G1 X125.978 Y115.024 E.01238
G1 X125.615 Y114.643 E.0165
G1 X125.458 Y114.316 E.01137
G1 X125.386 Y113.995 E.01031
G1 X125.383 Y113.171 E.02584
G1 X125.538 Y112.648 E.0171
G1 X125.801 Y112.278 E.01423
G1 X126.181 Y112.008 E.01462
G1 X126.737 Y111.857 E.01806
G1 X127.89 Y111.857 E.03615
G1 X127.887 Y111.196 E.02073
G1 X122.113 Y111.196 E.18104
G1 X122.11 Y111.86 E.02082
G1 X123.328 Y111.863 E.03819
G1 X123.754 Y111.976 E.01382
G1 X124.198 Y112.281 E.01689
G1 X124.474 Y112.671 E.01498
G1 X124.619 Y113.186 E.01678
G1 X124.614 Y113.977 E.0248
G1 X124.529 Y114.354 E.01212
G1 X124.296 Y114.765 E.01481
G1 X123.687 Y115.203 E.02352
G1 X123.244 Y115.296 E.01419
G1 X119.915 Y115.287 E.10438
G1 X119.249 Y115.04 E.02227
G1 X118.767 Y114.472 E.02336
G1 X118.63 Y113.913 E.01805
G1 X118.64 Y112.273 E.05142
G1 X118.709 Y112.013 E.00843
G1 X118.63 Y111.691 E.0104
G1 X118.633 Y109.271 E.07588
G1 X118.73 Y108.873 E.01284
G1 X118.939 Y108.507 E.01321
G1 X119.122 Y108.343 E.0077
M204 S1000
G1 X119.367 Y108.618 F10800
M204 S800
G1 F1200
G1 X119.515 Y108.487 E.0062
G1 X120.012 Y108.334 E.0163
G1 X130.03 Y108.337 E.31411
G1 X130.386 Y108.44 E.01162
G1 X130.701 Y108.664 E.01212
G1 X130.888 Y108.94 E.01045
G1 X130.993 Y109.338 E.01291
G1 X130.993 Y111.666 E.07299
G1 X130.894 Y112.03 E.01183
G1 X130.993 Y112.374 E.01122
G1 X130.993 Y113.92 E.04847
G1 X130.849 Y114.395 E.01556
G1 X130.511 Y114.746 E.01528
G1 X129.989 Y114.919 E.01724
G1 X126.725 Y114.917 E.10234
G1 X126.189 Y114.71 E.01802
G1 X125.915 Y114.413 E.01267
G1 X125.763 Y113.973 E.0146
G1 X125.76 Y113.196 E.02436
G1 X125.864 Y112.841 E.0116
G1 X126.087 Y112.526 E.0121
G1 X126.363 Y112.339 E.01045
G1 X126.761 Y112.234 E.01291
G1 X128.272 Y112.234 E.04738
G1 X128.351 Y112.031 E.00683
G1 X128.267 Y111.748 E.00926
G1 X128.262 Y110.819 E.02913
G1 X121.738 Y110.819 E.20456
G1 X121.733 Y111.748 E.02913
G1 X121.649 Y112.028 E.00917
G1 X121.746 Y112.236 E.0072
G1 X123.305 Y112.24 E.04888
G1 X123.576 Y112.309 E.00877
G1 X123.917 Y112.535 E.01283
G1 X124.123 Y112.813 E.01085
G1 X124.241 Y113.213 E.01308
G1 X124.237 Y113.953 E.0232
G1 X124.016 Y114.512 E.01885
G1 X123.577 Y114.842 E.01722
G1 X123.223 Y114.919 E.01136
G1 X119.98 Y114.915 E.10168
G1 X119.452 Y114.721 E.01764
G1 X119.104 Y114.301 E.0171
G1 X119.007 Y113.893 E.01315
G1 X119.017 Y112.305 E.04979
G1 X119.102 Y112.02 E.00932
G1 X119.007 Y111.665 E.01152
G1 X119.01 Y109.296 E.07428
G1 X119.247 Y108.725 E.01938
G1 X119.323 Y108.658 E.00318
M204 S1000
G1 X119.556 Y108.944 F10800
M204 S800
G1 F1200
G1 X119.738 Y108.795 E.00737
G1 X120.039 Y108.711 E.0098
G1 X130.004 Y108.714 E.31245
G1 X130.203 Y108.771 E.00649
G1 X130.535 Y109.077 E.01416
G1 X130.616 Y109.365 E.00938
G1 X130.616 Y111.636 E.07121
G1 X130.498 Y112.034 E.01302
G1 X130.615 Y112.405 E.0122
G1 X130.616 Y113.891 E.04659
G1 X130.513 Y114.223 E.0109
G1 X130.323 Y114.418 E.00854
G1 X129.967 Y114.542 E.01182
G1 X126.746 Y114.54 E.10099
G1 X126.398 Y114.395 E.01182
G1 X126.244 Y114.227 E.00715
G1 X126.14 Y113.947 E.00937
G1 X126.137 Y113.221 E.02276
G1 X126.339 Y112.808 E.01442
G1 X126.501 Y112.691 E.00627
G1 X126.788 Y112.611 E.00934
G1 X128.629 Y112.611 E.05772
G1 X128.755 Y112.037 E.01843
G1 X128.644 Y111.712 E.01077
G1 X128.637 Y110.442 E.03982
G1 X121.363 Y110.442 E.22807
G1 X121.356 Y111.711 E.03979
G1 X121.238 Y112.05 E.01125
G1 X121.393 Y112.613 E.01831
G1 X123.445 Y112.664 E.06436
G1 X123.776 Y112.963 E.01399
G1 X123.864 Y113.242 E.00917
G1 X123.81 Y114.123 E.02767
G1 X123.581 Y114.411 E.01154
G1 X123.2 Y114.542 E.01263
G1 X120.044 Y114.542 E.09895
G1 X119.802 Y114.486 E.00779
G1 X119.516 Y114.257 E.01149
G1 X119.384 Y113.874 E.0127
G1 X119.394 Y112.341 E.04807
G1 X119.498 Y112.03 E.01028
G1 X119.384 Y111.636 E.01286
G1 X119.387 Y109.319 E.07265
G1 X119.531 Y108.999 E.011
M204 S1000
G1 X119.855 Y109.211 F10800
M204 S800
G1 F1200
G1 X119.902 Y109.139 E.0027
G1 X129.977 Y109.091 E.3159
G1 X130.151 Y109.182 E.00616
G1 X130.239 Y109.395 E.00723
G1 X130.239 Y111.608 E.06939
G1 X130.156 Y111.816 E.00702
G1 X129.832 Y112.043 E.0124
G1 X130.139 Y112.22 E.01111
G1 X130.238 Y112.44 E.00756
G1 X130.239 Y113.858 E.04446
G1 X130.13 Y114.092 E.00809
G1 X129.947 Y114.165 E.00618
G1 X126.774 Y114.163 E.09949
G1 X126.613 Y114.084 E.00562
G1 X126.521 Y113.93 E.00562
G1 X126.514 Y113.249 E.02135
G1 X126.651 Y113.039 E.00786
G1 X129.006 Y112.988 E.07386
G1 X129.07 Y112.266 E.02273
G1 X129.425 Y112.068 E.01275
G1 X129.021 Y111.68 E.01756
