; generated by PrusaSlicer 2.9.1 on 2025-04-07 at 13:41:30 UTC


;
;
; 

; external perimeters extrusion width = 0.45mm
; perimeters extrusion width = 0.45mm
; infill extrusion width = 0.45mm
; solid infill extrusion width = 0.45mm
; top infill extrusion width = 0.40mm
; support material extrusion width = 0.35mm
; first layer extrusion width = 0.42mm

; external perimeters extrusion width = 0.45mm
; perimeters extrusion width = 0.45mm
; infill extrusion width = 0.45mm
; solid infill extrusion width = 0.45mm
; top infill extrusion width = 0.40mm
; support material extrusion width = 0.35mm
; first layer extrusion width = 0.42mm

; external perimeters extrusion width = 0.45mm
; perimeters extrusion width = 0.45mm
; infill extrusion width = 0.45mm
; solid infill extrusion width = 0.45mm
; top infill extrusion width = 0.40mm
; support material extrusion width = 0.35mm
; first layer extrusion width = 0.42mm

M73 P0 R21
M73 Q0 S21
M201 X1000 Y1000 Z200 E5000 ; sets maximum accelerations, mm/sec^2
M203 X200 Y200 Z12 E120 ; sets maximum feedrates, mm / sec
M204 S1250 T1250 ; sets acceleration (S) and retract acceleration (R), mm/sec^2
M205 X8.00 Y8.00 Z0.40 E4.50 ; sets the jerk limits, mm/sec
M205 S0 T0 ; sets the minimum extruding and travel feed rate, mm/sec

; printing object bearing-clamp.stl id:0 copy 0
; stop printing object bearing-clamp.stl id:0 copy 0
; printing object distance-ring.stl id:1 copy 0
; stop printing object distance-ring.stl id:1 copy 0
; printing object magnet-holder.stl id:2 copy 0
; stop printing object magnet-holder.stl id:2 copy 0

;TYPE:Custom
M862.3 P "MK3S" ; printer model check
M862.1 P0.4 ; nozzle diameter check
M115 U3.14.1 ; tell printer latest fw version
G90 ; use absolute coordinates
M83 ; extruder relative mode
M104 S240 ; set extruder temp
M140 S85 ; set bed temp
M190 S85 ; wait for bed temp
M109 S240 ; wait for extruder temp
G28 W ; home all without mesh bed level
G80 X99.469 Y76.4466 W53.7481 H55.4445 ; mesh bed levelling

G1 Z0.2 F720
G1 Y-3 F1000 ; go outside print area
G92 E0
G1 X60 E9 F1000 ; intro line
G1 X100 E12.5 F1000 ; intro line

G92 E0
M221 S95

; Don't change E values below. Excessive value can damage the printer.
M907 E430 ; set extruder motor current
G21 ; set units to millimeters
G90 ; use absolute coordinates
M83 ; use relative distances for extrusion

M900 K0.08 ; Filament gcode LA 1.5
M900 K45 ; Filament gcode LA 1.0




M107
;LAYER_CHANGE
;Z:0.2
;HEIGHT:0.2
G1 E-1 F2100
G1 Z.4 F720
G1 X103.367 Y81.893 F10800
G1 Z.2 F720
G1 E1 F2100
M204 S800
;TYPE:Skirt/Brim
;WIDTH:0.42
G1 F1200
G1 X104.634 Y80.444 E.06035
G1 X106.259 Y79.077 E.06658
G1 X108.164 Y77.95 E.0694
G1 X109.952 Y77.241 E.06031
G1 X112.025 Y76.77 E.06665
G1 X113.953 Y76.635 E.0606
G1 X115.293 Y76.708 E.04208
G1 X116.627 Y76.919 E.04235
G1 X117.933 Y77.265 E.04236
G1 X119.116 Y77.708 E.03961
G1 X144.712 Y89.318 E.88124
G1 X149.401 Y91.661 E.16435
G1 X149.97 Y92.071 E.02199
G1 X150.49 Y92.75 E.02682
G1 X152.797 Y97.364 E.16174
G1 X153.029 Y98.343 E.03155
G1 X153.029 Y109 E.33414
G1 X152.797 Y109.979 E.03155
G1 X150.49 Y114.593 E.16174
G1 X150.08 Y115.162 E.02199
G1 X149.401 Y115.682 E.02682
G1 X120.801 Y129.858 E1.00085
G1 X115.767 Y131.375 E.16485
G1 X114.21 Y131.632 E.04948
G1 X112.625 Y131.701 E.04974
M73 Q1 S21
G1 X111.011 Y131.574 E.05076
G1 X109.261 Y131.206 E.05607
G1 X105.229 Y129.992 E.13203
M73 P1 R21
G1 X104.223 Y129.354 E.03735
G1 X101.603 Y125.409 E.14849
G1 X100.632 Y123.49 E.06743
G1 X100.181 Y122.194 E.04303
G1 X99.881 Y120.93 E.04073
G1 X99.694 Y119.492 E.04547
G1 X99.663 Y118.145 E.04225
G1 X100.742 Y89.01 E.91413
G1 X100.982 Y87.188 E.05762
G1 X101.45 Y85.488 E.05529
G1 X102.23 Y83.689 E.06148
G1 X103.335 Y81.944 E.06476
M204 S1000
;WIPE_START
G1 F8640
G1 X103.367 Y81.893 E-.0139
G1 X104.634 Y80.444 E-.44444
G1 X106.259 Y79.077 E-.49033
G1 X106.45 Y78.964 E-.05133
;WIPE_END
G1 Z.4 F720
G1 X105.318 Y83.441 F10800
G1 Z.2 F720
G1 E1 F2100
M204 S800
G1 F1200
G1 X105.694 Y82.942 E.01959
G1 X106.437 Y82.143 E.03421
G1 X107.221 Y81.451 E.03279
G1 X108.084 Y80.83 E.03334
G1 X108.988 Y80.306 E.03276
G1 X109.959 Y79.864 E.03345
G1 X110.955 Y79.525 E.03299
G1 X111.981 Y79.285 E.03304
G1 X113.036 Y79.146 E.03336
G1 X114.078 Y79.112 E.03269
G1 X115.124 Y79.18 E.03287
G1 X116.154 Y79.349 E.03273
G1 X117.161 Y79.617 E.03267
G1 X118.139 Y79.983 E.03274
G1 X119.07 Y80.438 E.03249
G1 X119.929 Y80.965 E.0316
G1 X120.789 Y81.615 E.0338
G1 X121.589 Y82.359 E.03425
G1 X122.293 Y83.159 E.03341
G1 X122.903 Y84.009 E.0328
G1 X123.437 Y84.933 E.03346
G1 X124.167 Y86.75 E.0614
G1 X124.426 Y87.802 E.03397
G1 X124.577 Y88.886 E.03432
G1 X124.617 Y89.979 E.03429
G1 X124.551 Y91.023 E.0328
G1 X124.379 Y92.074 E.03339
G1 X124.104 Y93.104 E.03343
G1 X123.334 Y94.908 E.0615
G1 X122.773 Y95.835 E.03397
G1 X122.113 Y96.708 E.03431
G1 X121.369 Y97.509 E.03428
G1 X120.583 Y98.201 E.03283
G1 X119.718 Y98.823 E.03341
G1 X118.794 Y99.356 E.03345
G1 X116.976 Y100.087 E.06144
G1 X115.923 Y100.345 E.03399
G1 X114.839 Y100.496 E.03432
G1 X113.746 Y100.536 E.03429
G1 X112.702 Y100.469 E.0328
G1 X111.651 Y100.297 E.03339
G1 X110.621 Y100.021 E.03343
G1 X108.817 Y99.251 E.0615
G1 X107.891 Y98.69 E.03395
G1 X107.018 Y98.03 E.03431
G1 X106.219 Y97.287 E.03421
G1 X105.527 Y96.501 E.03283
G1 X104.905 Y95.635 E.03343
G1 X104.372 Y94.712 E.03342
G1 X103.641 Y92.892 E.0615
G1 X103.383 Y91.84 E.03396
G1 X103.232 Y90.755 E.03435
G1 X103.193 Y89.664 E.03423
G1 X103.261 Y88.606 E.03324
G1 X103.43 Y87.578 E.03266
G1 X103.698 Y86.571 E.03267
G1 X104.063 Y85.592 E.03276
G1 X104.519 Y84.66 E.03253
G1 X105.045 Y83.801 E.03158
G1 X105.281 Y83.489 E.01227
M204 S1000
G1 X105.582 Y83.715 F10800
M204 S800
G1 F1200
G1 X105.977 Y83.191 E.02057
G1 X106.693 Y82.419 E.03301
G1 X108.282 Y81.151 E.06374
G1 X109.153 Y80.645 E.03158
G1 X110.09 Y80.217 E.0323
G1 X112.04 Y79.657 E.06361
G1 X114.063 Y79.489 E.06365
G1 X116.066 Y79.716 E.0632
G1 X117.982 Y80.326 E.06305
G1 X119.71 Y81.272 E.06177
G1 X120.54 Y81.898 E.0326
G1 X121.313 Y82.615 E.03306
G1 X121.992 Y83.387 E.03224
G1 X122.582 Y84.207 E.03167
G1 X123.097 Y85.097 E.03224
G1 X123.52 Y86.03 E.03212
G1 X124.054 Y87.864 E.05989
G1 X124.201 Y88.91 E.03312
G1 X124.24 Y89.965 E.0331
G1 X124.177 Y90.971 E.0316
G1 X124.012 Y91.987 E.03227
G1 X123.747 Y92.98 E.03222
G1 X123.389 Y93.933 E.03192
G1 X122.466 Y95.615 E.06016
G1 X121.83 Y96.459 E.03314
G1 X121.113 Y97.232 E.03306
G1 X120.355 Y97.901 E.0317
G1 X119.521 Y98.501 E.03221
G1 X118.63 Y99.017 E.03228
G1 X117.703 Y99.437 E.03191
G1 X115.861 Y99.973 E.06015
G1 X114.815 Y100.12 E.03312
G1 X113.76 Y100.159 E.0331
G1 X112.754 Y100.096 E.0316
G1 X111.739 Y99.93 E.03225
G1 X110.745 Y99.665 E.03225
G1 X109.793 Y99.307 E.03189
G1 X108.11 Y98.383 E.0602
G1 X107.267 Y97.747 E.03311
G1 X106.496 Y97.03 E.03301
G1 X105.827 Y96.273 E.03168
G1 X105.227 Y95.438 E.03224
G1 X104.711 Y94.548 E.03226
G1 X104.291 Y93.62 E.03194
G1 X103.755 Y91.778 E.06015
G1 X103.609 Y90.732 E.03311
G1 X103.57 Y89.678 E.03307
G1 X103.797 Y87.665 E.06352
G1 X104.406 Y85.749 E.06304
G1 X105.352 Y84.021 E.06177
G1 X105.546 Y83.763 E.01012
M204 S1000
G1 X105.884 Y83.993 F10800
M204 S800
G1 F1200
G1 X106.261 Y83.44 E.02098
G1 X107.678 Y82.052 E.06219
G1 X109.318 Y80.984 E.06136
G1 X111.146 Y80.254 E.06172
G1 X113.08 Y79.899 E.06165
G1 X115.021 Y79.927 E.06087
G1 X116.916 Y80.33 E.06075
G1 X118.692 Y81.091 E.06058
G1 X120.291 Y82.181 E.06068
G1 X121.036 Y82.872 E.03186
G1 X121.692 Y83.615 E.03108
G1 X122.758 Y85.261 E.06149
G1 X123.439 Y86.948 E.05704
G1 X123.682 Y87.926 E.0316
G1 X123.824 Y88.934 E.03192
G1 X123.804 Y90.921 E.0623
G1 X123.391 Y92.857 E.06207
G1 X122.68 Y94.533 E.05708
G1 X122.159 Y95.397 E.03163
G1 X121.547 Y96.21 E.03191
G1 X120.127 Y97.6 E.0623
G1 X118.465 Y98.677 E.0621
G1 X116.778 Y99.359 E.05705
G1 X115.799 Y99.601 E.03162
G1 X114.791 Y99.743 E.03192
G1 X112.805 Y99.722 E.06227
G1 X110.869 Y99.309 E.06207
G1 X109.192 Y98.597 E.05712
G1 X108.329 Y98.076 E.03161
G1 X107.517 Y97.464 E.03188
G1 X106.128 Y96.044 E.06228
G1 X105.051 Y94.383 E.06207
G1 X104.369 Y92.695 E.05708
G1 X104.127 Y91.716 E.03162
G1 X103.985 Y90.708 E.03192
G1 X103.947 Y89.692 E.03188
G1 X104.008 Y88.709 E.03088
G1 X104.411 Y86.816 E.06068
G1 X105.172 Y85.038 E.06064
G1 X105.85 Y84.043 E.03775
M73 Q2 S21
M204 S1000
G1 X106.123 Y84.271 F10800
M204 S800
G1 F1200
G1 X107.208 Y82.971 E.05309
G1 X108.678 Y81.793 E.05906
M73 P2 R21
G1 X110.352 Y80.925 E.05912
G1 X112.158 Y80.402 E.05895
G1 X114.035 Y80.243 E.05906
G1 X115.892 Y80.45 E.05859
G1 X117.669 Y81.012 E.05844
G1 X119.271 Y81.886 E.05722
G1 X120.76 Y83.129 E.06082
G1 X121.949 Y84.617 E.05972
G1 X122.813 Y86.294 E.05915
G1 X123.31 Y87.989 E.05538
G1 X123.448 Y88.959 E.03072
G1 X123.486 Y89.938 E.03072
G1 X123.279 Y91.812 E.05912
G1 X122.703 Y93.621 E.05953
G1 X121.851 Y95.178 E.05565
G1 X120.599 Y96.68 E.06131
G1 X119.126 Y97.859 E.05916
G1 X117.439 Y98.73 E.05953
G1 X115.736 Y99.229 E.05564
G1 X114.767 Y99.367 E.03069
G1 X113.787 Y99.405 E.03075
G1 X111.914 Y99.196 E.05909
G1 X110.105 Y98.62 E.05953
G1 X108.548 Y97.768 E.05565
G1 X107.048 Y96.517 E.06124
G1 X105.869 Y95.043 E.05918
G1 X104.998 Y93.356 E.05953
G1 X104.499 Y91.653 E.05564
G1 X104.324 Y89.706 E.06129
G1 X104.531 Y87.839 E.0589
G1 X105.092 Y86.062 E.05843
G1 X105.966 Y84.459 E.05725
G1 X106.085 Y84.317 E.00581
M204 S1000
G1 X106.417 Y84.543 F10800
M204 S800
G1 F1200
G1 X106.828 Y83.937 E.02296
G1 X108.136 Y82.651 E.05751
G1 X109.65 Y81.661 E.05672
G1 X111.355 Y80.979 E.05758
G1 X113.161 Y80.649 E.05756
G1 X114.92 Y80.675 E.05516
G1 X116.671 Y81.044 E.05611
G1 X118.316 Y81.745 E.05607
G1 X119.794 Y82.749 E.05602
G1 X121.091 Y84.071 E.05807
G1 X122.087 Y85.607 E.0574
G1 X122.712 Y87.148 E.05214
G1 X123.072 Y88.984 E.05866
G1 X123.056 Y90.82 E.05757
G1 X122.678 Y92.611 E.05739
G1 X122.024 Y94.16 E.05272
G1 X120.98 Y95.713 E.05867
G1 X119.669 Y97 E.0576
G1 X118.135 Y97.999 E.0574
G1 X116.578 Y98.631 E.05269
G1 X114.742 Y98.99 E.05866
G1 X112.905 Y98.974 E.0576
G1 X111.115 Y98.596 E.05736
G1 X109.566 Y97.941 E.05273
G1 X108.014 Y96.897 E.05865
G1 X106.728 Y95.587 E.05756
G1 X105.729 Y94.053 E.0574
G1 X105.097 Y92.496 E.05269
G1 X104.738 Y90.658 E.05872
G1 X104.756 Y88.81 E.05795
G1 X105.125 Y87.06 E.05608
G1 X105.825 Y85.415 E.05605
G1 X106.383 Y84.592 E.03118
M204 S1000
G1 X106.649 Y84.814 F10800
M204 S800
G1 F1200
G1 X107.723 Y83.522 E.05268
G1 X109.075 Y82.434 E.05441
G1 X110.616 Y81.631 E.05448
G1 X112.312 Y81.141 E.05535
G1 X114.007 Y80.997 E.05334
G1 X115.719 Y81.184 E.054
G1 X117.357 Y81.699 E.05384
G1 X118.834 Y82.5 E.05268
G1 X120.209 Y83.643 E.05606
G1 X121.306 Y85.012 E.055
G1 X122.107 Y86.559 E.05462
G1 X122.566 Y88.116 E.0509
G1 X122.733 Y89.912 E.05656
G1 X122.544 Y91.638 E.05444
G1 X122.015 Y93.309 E.05496
G1 X121.236 Y94.742 E.05114
G1 X120.084 Y96.129 E.05653
G1 X118.729 Y97.217 E.05449
G1 X117.173 Y98.024 E.05496
G1 X115.61 Y98.485 E.05109
G1 X113.813 Y98.651 E.05658
G1 X112.087 Y98.462 E.05444
G1 X110.417 Y97.933 E.05493
G1 X108.984 Y97.153 E.05116
G1 X107.599 Y96.002 E.05646
G1 X106.511 Y94.647 E.05449
G1 X105.704 Y93.09 E.05499
G1 X105.243 Y91.527 E.05109
G1 X105.078 Y89.732 E.05652
G1 X105.265 Y88.012 E.05425
G1 X105.779 Y86.375 E.0538
G1 X106.581 Y84.896 E.05275
G1 X106.611 Y84.86 E.00147
M204 S1000
G1 X106.951 Y85.09 F10800
M204 S800
G1 F1200
G1 X107.397 Y84.433 E.0249
G1 X108.595 Y83.25 E.05279
G1 X109.983 Y82.338 E.05207
G1 X111.565 Y81.703 E.05345
G1 X113.24 Y81.399 E.05338
G1 X114.82 Y81.423 E.04955
G1 X116.429 Y81.759 E.05154
G1 X117.97 Y82.415 E.05251
G1 X119.297 Y83.317 E.05031
G1 X120.492 Y84.529 E.05337
G1 X121.409 Y85.937 E.05268
G1 X121.985 Y87.349 E.04781
G1 X122.319 Y89.035 E.05389
G1 X122.306 Y90.739 E.05343
G1 X121.959 Y92.383 E.05268
G1 X121.368 Y93.788 E.04779
G1 X120.411 Y95.216 E.0539
G1 X119.197 Y96.413 E.05346
G1 X117.788 Y97.329 E.05269
G1 X116.378 Y97.904 E.04774
G1 X114.691 Y98.238 E.05392
G1 X112.987 Y98.224 E.05343
G1 X111.343 Y97.877 E.05268
G1 X109.938 Y97.285 E.0478
G1 X108.51 Y96.328 E.0539
G1 X107.327 Y95.128 E.05283
G1 X106.407 Y93.722 E.05268
G1 X105.824 Y92.295 E.04833
G1 X105.491 Y90.608 E.05392
G1 X105.504 Y88.91 E.05324
G1 X105.839 Y87.302 E.0515
G1 X106.496 Y85.76 E.05255
G1 X106.917 Y85.14 E.0235
M204 S1000
G1 X107.196 Y85.333 F10800
M204 S800
G1 F1200
G1 X108.239 Y84.072 E.05131
G1 X109.474 Y83.075 E.04977
G1 X110.88 Y82.338 E.04977
G1 X112.466 Y81.879 E.05177
G1 X113.981 Y81.751 E.04767
G1 X115.547 Y81.919 E.04938
G1 X117.062 Y82.393 E.04977
G1 X118.397 Y83.116 E.0476
G1 X119.658 Y84.159 E.05131
G1 X120.665 Y85.409 E.05033
G1 X121.402 Y86.826 E.05008
G1 X121.823 Y88.245 E.04641
G1 X121.979 Y89.888 E.05175
G1 X121.806 Y91.483 E.0503
G1 X121.328 Y93 E.04987
G1 X120.619 Y94.307 E.04662
G1 X119.568 Y95.578 E.05171
G1 X118.317 Y96.585 E.05035
G1 X116.906 Y97.319 E.04987
G1 X115.481 Y97.742 E.04661
G1 X113.838 Y97.897 E.05174
M73 Q3 S21
G1 X112.243 Y97.724 E.0503
G1 X110.727 Y97.245 E.04985
M73 P3 R21
G1 X109.419 Y96.537 E.04663
G1 X108.15 Y95.486 E.05166
G1 X107.143 Y94.234 E.05038
G1 X106.41 Y92.824 E.04983
G1 X105.986 Y91.399 E.04662
G1 X105.832 Y89.757 E.05171
G1 X106 Y88.183 E.04963
G1 X106.473 Y86.669 E.04973
G1 X107.168 Y85.385 E.04578
M204 S1000
G1 X107.501 Y85.612 F10800
M204 S800
G1 F1200
G1 X107.966 Y84.928 E.02593
G1 X109.069 Y83.836 E.04867
G1 X110.333 Y83.006 E.04741
G1 X111.774 Y82.428 E.04868
G1 X113.318 Y82.15 E.04919
G1 X114.722 Y82.171 E.04403
G1 X116.22 Y82.483 E.04798
G1 X117.624 Y83.085 E.0479
G1 X118.803 Y83.886 E.04469
G1 X119.893 Y84.988 E.0486
G1 X120.732 Y86.269 E.04801
G1 X121.258 Y87.551 E.04345
G1 X121.566 Y89.088 E.04915
G1 X121.558 Y90.64 E.04866
G1 X121.245 Y92.138 E.04798
G1 X120.711 Y93.417 E.04346
G1 X119.842 Y94.722 E.04916
G1 X118.738 Y95.814 E.04869
G1 X117.457 Y96.652 E.048
G1 X116.175 Y97.178 E.04345
G1 X114.638 Y97.485 E.04914
G1 X113.086 Y97.477 E.04866
G1 X111.588 Y97.163 E.04799
G1 X110.309 Y96.628 E.04347
G1 X109.005 Y95.759 E.04913
G1 X107.914 Y94.655 E.04867
G1 X107.076 Y93.374 E.048
G1 X106.551 Y92.092 E.04344
G1 X106.243 Y90.555 E.04915
G1 X106.252 Y89.008 E.04851
G1 X106.559 Y87.528 E.04739
G1 X107.166 Y86.106 E.04848
G1 X107.468 Y85.662 E.01684
M204 S1000
G1 X107.779 Y85.83 F10800
M204 S800
G1 F1200
G1 X107.812 Y85.768 E.0022
G1 X108.757 Y84.621 E.0466
G1 X109.888 Y83.705 E.04563
G1 X111.178 Y83.031 E.04564
G1 X112.617 Y82.618 E.04694
G1 X113.955 Y82.505 E.0421
G1 X115.394 Y82.657 E.04537
G1 X116.782 Y83.093 E.04562
G1 X117.962 Y83.732 E.04207
G1 X119.109 Y84.677 E.0466
G1 X120.024 Y85.807 E.04559
G1 X120.697 Y87.095 E.04556
G1 X121.08 Y88.375 E.04189
G1 X121.224 Y89.865 E.04694
G1 X121.072 Y91.311 E.04559
G1 X120.639 Y92.691 E.04535
G1 X120.002 Y93.874 E.04213
G1 X119.051 Y95.029 E.04691
G1 X117.919 Y95.944 E.04564
G1 X116.638 Y96.614 E.04533
G1 X115.351 Y96.999 E.04212
G1 X113.861 Y97.143 E.04694
G1 X112.415 Y96.99 E.04559
G1 X111.036 Y96.557 E.04532
G1 X109.853 Y95.919 E.04214
G1 X108.699 Y94.969 E.04687
G1 X107.784 Y93.837 E.04564
G1 X107.114 Y92.555 E.04535
G1 X106.73 Y91.269 E.04208
G1 X106.586 Y89.78 E.0469
G1 X106.738 Y88.337 E.04549
G1 X107.174 Y86.949 E.04562
G1 X107.75 Y85.883 E.03799
M204 S1000
G1 X108.074 Y86.103 F10800
M204 S800
G1 F1200
G1 X108.537 Y85.421 E.02585
G1 X109.543 Y84.422 E.04445
G1 X110.698 Y83.666 E.04328
G1 X112 Y83.148 E.04394
G1 X113.395 Y82.9 E.04443
G1 X114.625 Y82.919 E.03857
G1 X115.994 Y83.203 E.04384
G1 X117.277 Y83.755 E.04379
G1 X118.309 Y84.457 E.03913
G1 X119.296 Y85.449 E.04388
G1 X120.055 Y86.602 E.04328
G1 X120.532 Y87.756 E.03915
G1 X120.814 Y89.142 E.04435
G1 X120.81 Y90.543 E.04393
G1 X120.531 Y91.895 E.04328
G1 X120.053 Y93.048 E.03914
G1 X119.271 Y94.228 E.04439
G1 X118.278 Y95.216 E.04392
G1 X117.108 Y95.983 E.04386
G1 X115.971 Y96.451 E.03855
G1 X114.584 Y96.733 E.04438
G1 X113.183 Y96.728 E.04393
M73 P3 R20
G1 X111.831 Y96.449 E.04328
G1 X110.678 Y95.971 E.03914
G1 X109.499 Y95.189 E.04436
G1 X108.512 Y94.195 E.04392
G1 X107.753 Y93.042 E.04328
G1 X107.277 Y91.889 E.03911
G1 X106.996 Y90.501 E.0444
